X:95
T:Mist Covered Mountain
Z: id:dc-jig-77
M:6/8
L:1/8
K:A Dorian
G|EAA ABd|eAA AGE|G3 GAB|dBA GED|!
EAA ABd|eAA Bcd|efg dBG|BAG A2:|!
e|age a2b|age edB|AGE G2A|BAB|!
[1 deg|age a2b|age edB|AGE G2A|BAG A2:|!
[2 GED|EDE G2A|BAG Bcd|efg dBG|BAG A2|]!

